public/assets/images/icons/yellow/visibility-invisible/assessment.svg

<svg width="16" height="16" xmlns="http://www.w3.org/2000/svg" viewBox="0 0 16 16" shape-rendering="geometricPrecision" fill="#ffad00"><defs><mask id="a"><rect fill="#fff" width="100%" height="100%"/><path d="M12.997.858a4.809 4.809 0 0 0-4.253 2.563 4.81 4.81 0 0 0 8.506 0A4.812 4.812 0 0 0 12.997.858z" fill="#000"/></mask></defs><path d="M12.997 1.611a3.394 3.394 0 0 0-3.003 1.81 3.397 3.397 0 0 0 6.006 0 3.398 3.398 0 0 0-3.003-1.81zm-.001 3.396a1.587 1.587 0 1 1 0-3.174 1.587 1.587 0 0 1 0 3.174z" fill="#cb1800"/><g mask="url(#a)"><path d="M4.622 5.865H1.017V2.262h3.604v3.603h.001zM1.55 5.331h2.536V2.795H1.55v2.536zm3.072 4.472H1.017V6.199h3.604v3.604h.001zM1.55 9.268h2.536V6.73H1.55v2.538zm3.072 4.47H1.017v-3.604h3.604v3.604h.001zm-3.072-.534h2.536V10.67H1.55v2.534zM6.041 3.051h8.941v2.137H6.041zm0 3.892h8.941v2.135H6.041zm0 3.912h8.941v2.136H6.041z"/><path d="M5.248 6.887l-.627-.629-1.523 1.521-.797-.795-.626.625 1.424 1.425z"/></g></svg>

<?xml version="1.0"?><!DOCTYPE svg PUBLIC "-//W3C//DTD SVG 1.1//EN" "http://www.w3.org/Graphics/SVG/1.1/DTD/svg11.dtd"><svg width="16px" height="16px" xmlns="http://www.w3.org/2000/svg" viewBox="0 0 16 16" shape-rendering="geometricPrecision" fill="#ffad00"><defs><mask id="visibility-invisible-path"><rect fill="#fff" width="100%" height="100%"/><path d="M12.997,0.858c-1.845,0-3.446,1.039-4.253,2.563c0.808,1.523,2.408,2.562,4.253,2.562 c1.844,0,3.444-1.039,4.253-2.562C16.441,1.897,14.841,0.858,12.997,0.858z" fill="#000"/></mask></defs><g id="visibility-invisible" display="inline" fill="#cb1800"><g><g><path d="M12.997,1.611c-1.303,0-2.433,0.733-3.003,1.81c0.57,1.075,1.7,1.809,3.003,1.809c1.302,0,2.432-0.733,3.003-1.809 C15.429,2.345,14.299,1.611,12.997,1.611z M12.996,5.007c-0.876,0-1.587-0.71-1.587-1.586c0-0.877,0.711-1.588,1.587-1.588 c0.877,0,1.588,0.711,1.588,1.588C14.584,4.297,13.873,5.007,12.996,5.007z"/></g></g></g><g mask="url(#visibility-invisible-path)"><g><g><path d="M4.622,5.865H1.017V2.262h3.604V5.865L4.622,5.865z M1.55,5.331h2.536V2.795H1.55V5.331L1.55,5.331z"/></g><g><path d="M4.622,9.803H1.017V6.199h3.604V9.803L4.622,9.803z M1.55,9.268h2.536V6.73H1.55V9.268L1.55,9.268z"/></g><g><path d="M4.622,13.738H1.017v-3.604h3.604V13.738L4.622,13.738z M1.55,13.204h2.536V10.67H1.55V13.204L1.55,13.204z"/></g><rect x="6.041" y="3.051" width="8.941" height="2.137"/><rect x="6.041" y="6.943" width="8.941" height="2.135"/><rect x="6.041" y="10.855" width="8.941" height="2.136"/><polygon points="5.248,6.887 4.621,6.258 3.098,7.779 2.301,6.984 1.675,7.609 3.099,9.034"/></g></g></svg>
